X:1
T:Sanctus Dominus
T:Antonio Lotti
T:Sanctus Dominus
T:Copyright © 2015 by CPDL.  This edition can be fully distributed, duplicated, performed, and recorded. 
T:Copyright © 2015 by CPDL.  This edition can be fully distributed, duplicated, performed, and recorded. 
T:Copyright © 2015 by CPDL.  This edition can be fully distributed, duplicated, performed, and recorded. 
T:Copyright © 2015 by CPDL.  This edition can be fully distributed, duplicated, performed, and recorded. 
T:Copyright © 2015 by CPDL.  This edition can be fully distributed, duplicated, performed, and recorded. 
C:Antonio Lotti
Z:Copyright © 2015 by CPDL.  This edition can be fully distributed, duplicated, performed, and recorded.
Z:
%%score [ 1 2 3 4 ]
L:1/8
Q:1/2=100
M:4/2
K:D
V:1 treble nm="SOPRANO" snm="S."
V:2 treble nm="ALTO" snm="A."
V:3 treble-8 transpose=-12 nm="TENOR" snm="T."
V:4 bass nm="BASS" snm="B."
V:1
 z16 | z16 | z8 z4 d4- | d4 c4 d4 A4- | A2 B2 c2 d2 e4 B2 c2 | d4 A4 G8 | F8 E8 | z16 | z16 | z16 | %10
w: ||San-||* * ctus _ Do- mi- nus|De- us Sa-|ba- oth,||||
 z16 | z4 A4 A4 A4 | B6 A2 B2 c2 d2 B2 | c2 B2 c6 A2 B2 c2 | d8 D8 | z16 | z16 | z4 A6 G2 F4 | %18
w: |Ple- ni sunt|coe- * * * * *|* * * * li et|ter- ra|||glo- * *|
 G2 E2 F2 G2 A2 B2 c2 d2 | B4 B2 A2 G8 | F4 A6 B2 A4 | ^G4 A8 G4 | A16 | z16 | z16 | z4 A4 F4 A4 | %26
w: |* ri- a e-|jus, glo- ri- a|e- * *|jus.|||ple- ni sunt|
 B6 A2 G4 A2 B2 | E4 F2 G2 A6 G2 | F6 E2 D2 E2 F2 ^G2 | A4 A4 z4 A4 | F4 G2 A2 B6 A2 | %31
w: coe- * * li et|ter- * * * ra|glo- * * * ri- a|e- jus, ple-|ni sunt _ coe- *|
 G4 A2 B2 E4 F2 G2 | A6 G2 F4 G2 A2 | B6 A2 G4 A2 B2 | E8 F8 | E16 | F16 |] %37
w: * li et ter- * *|* ra glo- * *|* * * ri- a|e- *||jus.|
V:2
 D8 E8 | F6 E2 F2 G2 A4- | A4 G8 F4 | E8 D2 E2 F4- | F4 E8 G4 | D8 E8 | A,8 z4 A4- | %7
w: San- *|||ctus Do- mi- nus|_ De- us|Sa- ba-|oth, san-|
 A4 G4 F4 F2 G2 | A4 F4 G6 AG | F6 GF E4 A4- | A4 ^G2 F2 G8 | A6 ^G2 F6 F2 | E16- | E16 | %14
w: * ctus Do- mi- nus|De- us Sa- * *|* ba- * oth, Do-|* mi- nus De-|* us Sa- ba-|oth.|_|
 z4 D4 D4 D4 | E6 D2 E2 F2 G2 E2 | F2 E2 F6 E2 F2 ^G2 | A8 A,8 | z8 z4 F4- | F2 E2 D4 E2 C2 D2 E2 | %20
w: Ple- ni sunt|coe- * * * * *|* * * * li et|ter- ra|glo-||
 F12 E2 E2 | E16 | E4 E4 C4 E4 | F6 E2 D4 E2 F2 | B,4 C2 D2 E6 D2 | C4 D2 E2 F6 E2 | D4 D2 C2 B,8 | %27
w: * ri- a|e-|jus, ple- ni sunt|coe- * * li et|ter- * * * ra|glo- * * * *|* ri- a e-|
 A,4 A,2 B,2 C2 D2 E4 | D4 C4 B,8 | A,16 | z16 | z4 E4 C4 D2 E2 | F6 E2 D4 E2 F2 | G6 F2 E4 F2 G2 | %34
w: jus, glo- * * * *|ri- a e-|jus,||ple- ni sunt _|coe- * * li et|ter- * * ra _|
 C8 D8- | D4 C2 B,2 C8 | D16 |] %37
w: glo- *|* ri- a e-|jus.|
V:3
 z4 d8 c4 | d4 A6 B2 c2 d2 | e4 B2 c2 d4 A4 | G8 A6 G2 | A4 A2 B2 c2 d2 e4 | B2 c2 d8 c4 | %6
w: San- *|* * * ctus _|Do- mi- nus De- us|Do- * mi-|nus De- * * * us|Sa- * * ba-|
 d4 d8 c4 | B4 B2 c2 d4 B4 | c4 d4 e2 B2 e4- | e2 d2 d8 c4 | B12 B4 | A16 | z16 | z4 A4 A4 A4 | %14
w: oth, san- ctus|Do- mi- nus De- us|Sa- * * * *||* ba-|oth,||Ple- ni sunt|
 B6 A2 B2 c2 d2 B2 | c2 B2 c6 A2 B2 c2 | d8 D8 | z16 | z8 z4 d4- | d2 c2 B8 B2 c2 | %20
w: coe- * * * * *|* * * * li et|ter- ra||glo-||
 d2 A2 d6 d2 c4 | B4 c4 B8 | c8 z4 A4 | F4 A4 B6 A2 | ^G4 A2 B2 E4 F2 G2 | A4 A4 z4 d4 | %26
w: * * * ri- a|e- * *|jus, ple-|ni sunt coe- *|* li et ter- * *|* ra, ple-|
 B4 d4 e6 d2 | c6 B2 A8 | z8 z4 d4 | c4 e4 f6 e2 | d4 e2 f2 B4 c2 d2 | e4 B4 c6 B2 | %32
w: ni sunt coe- *|* * li,|ple-|ni sunt coe- *|* li et ter- * *|* ra glo- *|
 A4 B2 c2 d6 c2 | B2 c2 d6 c2 B4 | A16- | A16 | A16 |] %37
w: |* * * ri- a|e-||jus.|
V:4
 z16 | z16 | z8 D,8 | E,8 F,6 E,2 | F,2 G,2 A,8 G,4- | G,4 F,4 E,8 | D,8 A,,8 | z16 | z16 | z16 | %10
w: ||San-|ctus Do- *|* mi- nus De-|* us Sa-|ba- oth.||||
 z4 E,4 E,4 E,4 | F,6 E,2 F,2 ^G,2 A,2 F,2 | ^G,2 F,2 G,6 E,2 F,2 G,2 | A,8 A,,8 | z8 z8 | z16 | %16
w: Ple- ni sunt|coe- * * * * *|* * * * li et|ter- ra|||
 z4 D,6 C,2 B,,4 | C,2 A,,2 B,,2 C,2 D,2 E,2 F,2 D,2 | E,4 E,2 E,2 F,8 | G,6 F,2 E,8 | %20
w: glo- * *||* ri- a e-||
 D,4 D,6 D,2 A,,4 | E,16 | A,,16 | z4 D,4 B,,4 D,4 | E,6 D,2 C,4 D,2 E,2 | %25
w: jus, glo- ri- a|e-|jus.|ple- ni sunt|coe- * * li et|
 A,,4 B,,2 C,2 D,2 E,2 F,4 | G,8 G,4 G,4 | A,8 A,,8 | z16 | z4 A,4 F,4 A,4 | B,6 A,2 G,4 A,2 B,2 | %31
w: ter- * * * * ra|glo- ri- a|e- jus,||ple- ni sunt|coe- * * li et|
 E,4 F,2 G,2 A,6 G,2 | F,4 G,2 A,2 B,6 A,2 | G,8 G,,4 G,,4 | A,,16- | A,,16 | D,16 |] %37
w: ter- * * * ra,|glo- * * * *|* ri- a|e-||jus.|

